/* XPM */
static char * exit_open_xpm[] = {
"64 64 417 2",
"  	c None",
". 	c #6A492D",
"+ 	c #6A482D",
"@ 	c #69482C",
"# 	c #5B341C",
"$ 	c #00ECFF",
"% 	c #714F33",
"& 	c #714E33",
"* 	c #6B492E",
"= 	c #8C7554",
"- 	c #7D6345",
"; 	c #7D6344",
"> 	c #583319",
", 	c #6C492E",
"' 	c #907755",
") 	c #866C4C",
"! 	c #6B482E",
"~ 	c #8D7654",
"{ 	c #7E6445",
"] 	c #593219",
"^ 	c #907856",
"/ 	c #876D4C",
"( 	c #917A59",
"_ 	c #846B4B",
": 	c #6E5235",
"< 	c #6C492D",
"[ 	c #7C6142",
"} 	c #8B7252",
"| 	c #704F32",
"1 	c #856C4C",
"2 	c #6D5135",
"3 	c #7D6143",
"4 	c #927957",
"5 	c #8B7253",
"6 	c #6F4E31",
"7 	c #917A58",
"8 	c #6D5134",
"9 	c #593118",
"0 	c #6B472C",
"a 	c #7D6243",
"b 	c #9D8663",
"c 	c #907858",
"d 	c #8F7858",
"e 	c #6F4D30",
"f 	c #917A5B",
"g 	c #8B7153",
"h 	c #8A7252",
"i 	c #6C5133",
"j 	c #593119",
"k 	c #6B472D",
"l 	c #7E6343",
"m 	c #9D8763",
"n 	c #8F7758",
"o 	c #6E4B2F",
"p 	c #917A5C",
"q 	c #6C5033",
"r 	c #6B4F33",
"s 	c #573118",
"t 	c #6B482C",
"u 	c #7E6243",
"v 	c #6C4A2E",
"w 	c #68462A",
"x 	c #978165",
"y 	c #8E7658",
"z 	c #8E7657",
"A 	c #573117",
"B 	c #9D8765",
"C 	c #957D5D",
"D 	c #6B492C",
"E 	c #68452A",
"F 	c #978164",
"G 	c #8E7557",
"H 	c #6B5032",
"I 	c #563016",
"J 	c #6D4A2E",
"K 	c #7F6244",
"L 	c #9E8768",
"M 	c #6A472C",
"N 	c #8D7557",
"O 	c #8D7556",
"P 	c #6B4F32",
"Q 	c #562F16",
"R 	c #6D482D",
"S 	c #7F6344",
"T 	c #9E8769",
"U 	c #947D5C",
"V 	c #674528",
"W 	c #664429",
"X 	c #6B4E32",
"Y 	c #6B4E31",
"Z 	c #562E16",
"` 	c #6C482D",
" .	c #967F5E",
"..	c #957D5C",
"+.	c #664127",
"@.	c #674328",
"#.	c #6A4F31",
"$.	c #6A4E31",
"%.	c #552E15",
"&.	c #7E6244",
"*.	c #9D8768",
"=.	c #947C5C",
"-.	c #644124",
";.	c #644227",
">.	c #8C7557",
",.	c #6C4F33",
"'.	c #6C4F32",
").	c #552D15",
"!.	c #6C482C",
"~.	c #7F6345",
"{.	c #633D24",
"].	c #968063",
"^.	c #8A7052",
"/.	c #897051",
"(.	c #6B4E30",
"_.	c #542D15",
":.	c #7F6444",
"<.	c #7D6244",
"[.	c #9C8767",
"}.	c #8F7757",
"|.	c #623C22",
"1.	c #897150",
"2.	c #6B4D30",
"3.	c #6B472B",
"4.	c #7F6445",
"5.	c #6E4C2F",
"6.	c #7E6344",
"7.	c #9C8664",
"8.	c #613B20",
"9.	c #887050",
"0.	c #886F4F",
"a.	c #6B5642",
"b.	c #542C14",
"c.	c #684428",
"d.	c #6D492C",
"e.	c #857664",
"f.	c #6F4C2F",
"g.	c #9C8662",
"h.	c #8B7251",
"i.	c #897050",
"j.	c #5E391E",
"k.	c #634025",
"l.	c #5E3A20",
"m.	c #5F391F",
"n.	c #59341B",
"o.	c #5E4834",
"p.	c #532C14",
"q.	c #654023",
"r.	c #684326",
"s.	c #796651",
"t.	c #6B462A",
"u.	c #674126",
"v.	c #694428",
"w.	c #664025",
"x.	c #5E381D",
"y.	c #623F24",
"z.	c #857460",
"A.	c #83725E",
"B.	c #6B5643",
"C.	c #694C30",
"D.	c #643E21",
"E.	c #785A3B",
"F.	c #613A1D",
"G.	c #857663",
"H.	c #8D7C67",
"I.	c #8C7B67",
"J.	c #897965",
"K.	c #5E361D",
"L.	c #623F25",
"M.	c #75604A",
"N.	c #75614C",
"O.	c #75614B",
"P.	c #5F4734",
"Q.	c #694C2E",
"R.	c #532B14",
"S.	c #61391D",
"T.	c #806544",
"U.	c #61381D",
"V.	c #786651",
"W.	c #7D6852",
"X.	c #7D6953",
"Y.	c #7C6852",
"Z.	c #5C361C",
"`.	c #623E24",
" +	c #74604A",
".+	c #74614A",
"++	c #694C2F",
"@+	c #60391D",
"#+	c #7A5E3F",
"$+	c #60381C",
"%+	c #613D24",
"&+	c #552E16",
"*+	c #684C2F",
"=+	c #684C2E",
"-+	c #522B14",
";+	c #765739",
">+	c #5F371B",
",+	c #5D361B",
"'+	c #5C361A",
")+	c #5B341A",
"!+	c #603C22",
"~+	c #6E4D2F",
"{+	c #6E4C2D",
"]+	c #6C4C2E",
"^+	c #674A2E",
"/+	c #60391C",
"(+	c #7F6343",
"_+	c #866948",
":+	c #795938",
"<+	c #785838",
"[+	c #5A3419",
"}+	c #5F3C22",
"|+	c #826949",
"1+	c #7C6243",
"2+	c #7B6142",
"3+	c #674B2E",
"4+	c #674B2D",
"5+	c #674A2D",
"6+	c #542D17",
"7+	c #7F6243",
"8+	c #7E6242",
"9+	c #7D6142",
"0+	c #8C7454",
"a+	c #83694A",
"b+	c #826849",
"c+	c #593319",
"d+	c #5F3B22",
"e+	c #664A2E",
"f+	c #664A2D",
"g+	c #512A13",
"h+	c #685240",
"i+	c #502913",
"j+	c #867664",
"k+	c #5F381B",
"l+	c #7D6141",
"m+	c #8D7454",
"n+	c #5E3A21",
"o+	c #82684A",
"p+	c #66492D",
"q+	c #65482C",
"r+	c #5B4432",
"s+	c #786551",
"t+	c #5E361B",
"u+	c #7D5F40",
"v+	c #7C5F41",
"w+	c #8D7453",
"x+	c #816749",
"y+	c #816748",
"z+	c #583118",
"A+	c #5D3A21",
"B+	c #81684A",
"C+	c #775C3D",
"D+	c #775B3C",
"E+	c #66472B",
"F+	c #65472B",
"G+	c #76644F",
"H+	c #5D351A",
"I+	c #7B5F3F",
"J+	c #7A5E3E",
"K+	c #8C7353",
"L+	c #563018",
"M+	c #5D3920",
"N+	c #816949",
"O+	c #64472C",
"P+	c #644629",
"Q+	c #75634E",
"R+	c #5C341A",
"S+	c #7A5D3D",
"T+	c #795C3C",
"U+	c #7B6041",
"V+	c #806747",
"W+	c #775B3D",
"X+	c #765B3C",
"Y+	c #64462A",
"Z+	c #644529",
"`+	c #5B4431",
" @	c #5B3419",
".@	c #74624D",
"+@	c #5A3319",
"@@	c #795B3B",
"#@	c #785B3C",
"$@	c #8A7152",
"%@	c #7A5F40",
"&@	c #5C3920",
"*@	c #806647",
"=@	c #634428",
"-@	c #624428",
";@	c #53311C",
">@	c #593218",
",@	c #77593A",
"'@	c #775839",
")@	c #886F50",
"!@	c #795E3F",
"~@	c #542E16",
"{@	c #5C3820",
"]@	c #7E6546",
"^@	c #634328",
"/@	c #624227",
"(@	c #624127",
"_@	c #765738",
":@	c #755638",
"<@	c #745537",
"[@	c #785D3F",
"}@	c #532C15",
"|@	c #5B381F",
"1@	c #7E6446",
"2@	c #614227",
"3@	c #614226",
"4@	c #614126",
"5@	c #573017",
"6@	c #745436",
"7@	c #735436",
"8@	c #866D4E",
"9@	c #785D3E",
"0@	c #522C15",
"a@	c #7E6545",
"b@	c #735839",
"c@	c #735739",
"d@	c #614125",
"e@	c #614225",
"f@	c #725234",
"g@	c #725334",
"h@	c #715233",
"i@	c #74593B",
"j@	c #74593A",
"k@	c #5A371E",
"l@	c #7C6343",
"m@	c #725739",
"n@	c #614026",
"o@	c #614025",
"p@	c #705031",
"q@	c #603D23",
"r@	c #705032",
"s@	c #846B4A",
"t@	c #73583A",
"u@	c #512B14",
"v@	c #59341C",
"w@	c #603F26",
"x@	c #502A13",
"y@	c #603F24",
"z@	c #7A6B59",
"A@	c #5C381E",
"B@	c #836A49",
"C@	c #542F18",
"D@	c #7B6243",
"E@	c #675340",
"F@	c #5B371F",
"G@	c #6B5946",
"H@	c #58331A",
"I@	c #502A14",
"J@	c #59351D",
"K@	c #59351C",
"L@	c #5B4532",
"M@	c #69462A",
"N@	c #5A341B",
"O@	c #786958",
"P@	c #512A14",
"Q@	c #81705D",
"R@	c #7F6F5B",
"S@	c #5E3C21",
"T@	c #4F2913",
"U@	c #6D4B2D",
"V@	c #532E17",
"W@	c #6A5845",
"X@	c #7F6F5C",
"Y@	c #705C47",
"Z@	c #715E48",
"`@	c #634E3C",
" #	c #644126",
".#	c #705C46",
"+#	c #715E49",
"@#	c #705D48",
"##	c #715D48",
"$#	c #5C3A20",
"%#	c #5A4432",
"&#	c #65513F",
"*#	c #6C4A2C",
"=#	c #5B391F",
"-#	c #5C391F",
";#	c #63503D",
">#	c #6C4A2D",
",#	c #664427",
"'#	c #6B4A2C",
")#	c #69482A",
"!#	c #6A4A2C",
"~#	c #665240",
"{#	c #64513E",
"]#	c #71604E",
"^#	c #6C4B2D",
"/#	c #725233",
"(#	c #6D4D2E",
"_#	c #7A6142",
":#	c #715638",
"<#	c #5B371E",
"[#	c #65523F",
"}#	c #695744",
"|#	c #806646",
"1#	c #65503E",
"2#	c #7D6F5D",
"3#	c #7F6545",
"4#	c #6E5D4A",
"5#	c #776754",
"6#	c #766553",
"7#	c #817362",
"8#	c #73614E",
"9#	c #725F4D",
"0#	c #73624F",
"a#	c #6B5846",
"b#	c #7E6F5E",
"c#	c #685442",
"d#	c #736350",
"e#	c #7E705F",
"f#	c #6B5845",
"g#	c #72614E",
"h#	c #6A5745",
"i#	c #7D6E5D",
"j#	c #796958",
"                            . + @ @ # $ $ $ $ $ $ $ $ $ $ $ $ $ $ $ $ $ $ $ $ $ $ $ $ $ % % % % &                               ",
"                          * = - ; ; > $ $ $ $ $ $ $ $ $ $ $ $ $ $ $ $ $ $ $ $ $ $ $ $ $ , ' ' ) ) %                             ",
"                          ! ~ { { { ] $ $ $ $ $ $ $ $ $ $ $ $ $ $ $ $ $ $ $ $ $ $ $ $ $ , ^ ^ / ) %                             ",
"                          ! ~ { { { ] $ $ $ $ $ $ $ $ $ $ $ $ $ $ $ $ $ $ $ $ $ $ $ $ $ , ^ ^ / ) %                             ",
"                      * * ( _ _ : : ] $ $ $ $ $ $ $ $ $ $ $ $ $ $ $ $ $ $ $ $ $ $ $ $ $ < [ [ ^ } } | |                         ",
"                      . . ( 1 1 2 2 ] $ $ $ $ $ $ $ $ $ $ $ $ $ $ $ $ $ $ $ $ $ $ $ $ $ < 3 3 4 5 } 6 6                         ",
"                      . . 7 1 1 8 8 9 $ $ $ $ $ $ $ $ $ $ $ $ $ $ $ $ $ $ $ $ $ $ $ $ $ 0 a a b c d e e                         ",
"                    @ f f 5 g h i i j $ $ $ $ $ $ $ $ $ $ $ $ $ $ $ $ $ $ $ $ $ $ $ $ $ k l l m c c n n o                       ",
"                    @ p p g } q r r s $ $ $ $ $ $ $ $ $ $ $ $ $ $ $ $ $ $ $ $ $ $ $ $ $ t l l u b c n n v                       ",
"                    @ p p g } q r r s $ $ $ $ $ $ $ $ $ $ $ $ $ $ $ $ $ $ $ $ $ $ $ $ $ t l l u b c n n v                       ",
"                    w x x y z q q q A $ $ $ $ $ $ $ $ $ $ $ $ $ $ $ $ $ $ $ $ $ $ $ $ $ < l l l B C C C D                       ",
"                    E F F G z q H H I $ $ $ $ $ $ $ $ $ $ $ $ $ $ $ $ $ $ $ $ $ $ $ $ $ J K K K L C C C M                       ",
"                    E F F N O H P P Q $ $ $ $ $ $ $ $ $ $ $ $ $ $ $ $ $ $ $ $ $ $ $ $ $ R S S K T U U U V                       ",
"                  W F N N N N X Y Y Z $ $ $ $ $ $ $ $ $ $ $ $ $ $ $ $ $ $ $ $ $ $ $ $ $ ` S S K L  .U U ..+.                    ",
"                  @.F N N O P #.$.$.%.$ $ $ $ $ $ $ $ $ $ $ $ $ $ $ $ $ $ $ $ $ $ $ $ $ < S S K &.*.U U =.-.                    ",
"                  @.F N N O P #.$.$.%.$ $ $ $ $ $ $ $ $ $ $ $ $ $ $ $ $ $ $ $ $ $ $ $ $ < S S K &.*.U U =.-.                    ",
"                  ;.F N N >.,.'.Y Y ).$ $ $ $ $ $ $ $ $ $ $ $ $ $ $ $ $ $ $ $ $ $ $ $ $ !.~.~.S &.*.U U =.{.                    ",
"                  ;.].^.^./.q X (.(._.$ $ $ $ $ $ $ $ $ $ $ $ $ $ $ $ $ $ $ $ $ $ $ $ $ !.:.:.:.<.[.}.}.z |.                    ",
"                  ;.].1.1./.P _.2.2._.$ $ $ $ $ $ $ $ $ $ $ $ $ $ $ $ $ $ $ $ $ $ $ $ $ 3.4.4.5.6.7.}.}.z 8.                    ",
"                  ;.].9.9.0._.a._._.b.$ $ $ $ $ $ $ $ $ $ $ $ $ $ $ $ $ $ $ $ $ $ $ $ $ c.d.d.e.f.g.h.h.i.j.                    ",
"                  ;.].9.9.0._.a._._.b.$ $ $ $ $ $ $ $ $ $ $ $ $ $ $ $ $ $ $ $ $ $ $ $ $ c.d.d.e.f.g.h.h.i.j.                    ",
"                  k.l.m.m.n._.o.p.p.p.$ $ $ $ $ $ $ $ $ $ $ $ $ $ $ $ $ $ $ $ $ $ $ $ $ q.r.r.s.t.u.v.v.w.x.                    ",
"                  y.z.z.z.A.B.p.C.C.p.$ $ $ $ $ $ $ $ $ $ $ $ $ $ $ $ $ $ $ $ $ $ $ $ $ D.E.E.F.G.H.I.I.J.K.                    ",
"                  L.M.N.N.O.P.p.Q.Q.R.$ $ $ $ $ $ $ $ $ $ $ $ $ $ $ $ $ $ $ $ $ $ $ $ $ S.T.T.U.V.W.X.X.Y.Z.                    ",
"                  `. +O.O..+p.++Q.Q.R.$ $ $ $ $ $ $ $ $ $ $ $ $ $ $ $ $ $ $ $ $ $ $ $ $ @+:.:.#+$+Y.X.X.Y.Z.                    ",
"                  %+&+_._._.C.*+=+=+-+$ $ $ $ $ $ $ $ $ $ $ $ $ $ $ $ $ $ $ $ $ $ $ $ $ @+:.:.:.;+>+,+,+'+)+                    ",
"                  %+&+_._._.C.*+=+=+-+$ $ $ $ $ $ $ $ $ $ $ $ $ $ $ $ $ $ $ $ $ $ $ $ $ @+:.:.:.;+>+,+,+'+)+                    ",
"                  !+~+{+{+]+*+*+^+^+-+$ $ $ $ $ $ $ $ $ $ $ $ $ $ $ $ $ $ $ $ $ $ $ $ $ /+(+(+:.l _+:+:+<+[+                    ",
"                  }+|+1+1+2+3+4+5+5+6+$ $ $ $ $ $ $ $ $ $ $ $ $ $ $ $ $ $ $ $ $ $ $ $ $ $+7+7+8+9+0+a+a+b+c+                    ",
"                  d+|+[ [ 1+e+f+g+g+h+i+$ $ $ $ $ $ $ $ $ $ $ $ $ $ $ $ $ $ $ $ $ $ $ $+j+k+k+8+l+m+b+b+b+]                     ",
"                  n+o+2+2+1+p+q+g+g+r+i+$ $ $ $ $ $ $ $ $ $ $ $ $ $ $ $ $ $ $ $ $ $ $ >+s+t+t+u+v+w+x+x+y+z+                    ",
"                  A+B+C+C+D+E+F+g+g+r+i+$ $ $ $ $ $ $ $ $ $ $ $ $ $ $ $ $ $ $ $ $ $ $ t+G+H+H+I+J+K+a a [ L+                    ",
"                  A+B+C+C+D+E+F+g+g+r+i+$ $ $ $ $ $ $ $ $ $ $ $ $ $ $ $ $ $ $ $ $ $ $ t+G+H+H+I+J+K+a a [ L+                    ",
"                  M+N+C+C+D+O+P+g+g+r+i+$ $ $ $ $ $ $ $ $ $ $ $ $ $ $ $ $ $ $ $ $ $ $ H+Q+R+R+S+T+5 [ [ U+I                     ",
"                  M+V+W+W+X+Y+Z+i+i+`+i+$ $ $ $ $ $ $ $ $ $ $ $ $ $ $ $ $ $ $ $ $ $ $  @.@+@+@@@#@$@U+U+%@&+                    ",
"                  &@*@W+W+X+=@=@-@-@;@$ $ $ $ $ $ $ $ $ $ $ $ $ $ $ $ $ $ $ $ $ $ $ $ $ >@,@,@,@'@)@%@%@!@~@                    ",
"                  {@]@X+X+X+^@/@(@(@i+$ $ $ $ $ $ $ $ $ $ $ $ $ $ $ $ $ $ $ $ $ $ $ $ $ z+_@_@:@<@)@!@!@[@}@                    ",
"                  |@1@X+X+X+2@3@4@4@i+$ $ $ $ $ $ $ $ $ $ $ $ $ $ $ $ $ $ $ $ $ $ $ $ $ 5@6@6@7@7@8@[@[@9@0@                    ",
"                  |@1@X+X+X+2@3@4@4@i+$ $ $ $ $ $ $ $ $ $ $ $ $ $ $ $ $ $ $ $ $ $ $ $ $ 5@6@6@7@7@8@[@[@9@0@                    ",
"                  |@a@b@b@c@d@e@d@d@i+$ $ $ $ $ $ $ $ $ $ $ $ $ $ $ $ $ $ $ $ $ $ $ $ $ &+f@f@g@h@1 i@i@j@0@                    ",
"                  k@l@c@c@m@n@o@o@o@i+$ $ $ $ $ $ $ $ $ $ $ $ $ $ $ $ $ $ $ $ $ $ $ $ $ _.p@p@q@r@s@j@j@t@u@                    ",
"                  v@1+m@m@m@w@x@y@y@i+$ $ $ $ $ $ $ $ $ $ $ $ $ $ $ $ $ $ $ $ $ $ $ $ $ 0@l.l.z@A@B@t@t@b@u@                    ",
"                  C@D@m@m@m@x@E@u@u@i+$ $ $ $ $ $ $ $ $ $ $ $ $ $ $ $ $ $ $ $ $ $ $ $ $ -+F@F@G@H@B@m@m@m@I@                    ",
"                  I@J@J@J@K@x@L@x@x@i+$ $ $ $ $ $ $ $ $ $ $ $ $ $ $ $ $ $ $ $ $ $ $ $ $ u@M@M@N@O@I@P@P@I@I@                    ",
"                  I@J@J@J@K@x@L@x@x@i+$ $ $ $ $ $ $ $ $ $ $ $ $ $ $ $ $ $ $ $ $ $ $ $ $ u@M@M@N@O@I@P@P@I@I@                    ",
"                  x@Q@Q@Q@R@E@x@S@S@T@$ $ $ $ $ $ $ $ $ $ $ $ $ $ $ $ $ $ $ $ $ $ $ $ $ I@U@U@V@W@Q@Q@Q@X@x@                    ",
"                  x@Y@Z@Z@Z@L@x@i+i+`@T@$ $ $ $ $ $ $ $ $ $ $ $ $ $ $ $ $ $ $ $ $ $ $ x@O@x@x@ #H@.#+#+#Z@x@                    ",
"                  x@Y@@#@###i+$#i+i+%#T@$ $ $ $ $ $ $ $ $ $ $ $ $ $ $ $ $ $ $ $ $ $ $ x@&#i+i+*#H@.#@#@#@#T@                    ",
"                  i+i+i+i+i+=#-#T@T@%#T@$ $ $ $ $ $ $ $ $ $ $ $ $ $ $ $ $ $ $ $ $ $ $ x@;#T@T@>#,#T@T@T@T@T@                    ",
"                  i+i+i+i+i+=#-#T@T@%#T@$ $ $ $ $ $ $ $ $ $ $ $ $ $ $ $ $ $ $ $ $ $ $ x@;#T@T@>#,#T@T@T@T@T@                    ",
"                  i+'#)#)#!#F@T@~#~#%#T@$ $ $ $ $ $ $ $ $ $ $ $ $ $ $ $ $ $ $ $ $ $ $ T@{#]#]#T@^#/#(#(#(#T@                    ",
"                  T@_#:#:#:#<#T@%#%#%#T@$ $ $ $ $ $ $ $ $ $ $ $ $ $ $ $ $ $ $ $ $ $ $ T@[#}#}#T@^#|#:#:#:#T@                    ",
"                  T@_#:#:#:#k@T@%#%#T@$ $ $ $ $ $ $ $ $ $ $ $ $ $ $ $ $ $ $ $ $ $ $ $ $ T@}#}#T@^#a@:#:#:#T@                    ",
"                  T@_#:#:#:#T@1#%#%#T@$ $ $ $ $ $ $ $ $ $ $ $ $ $ $ $ $ $ $ $ $ $ $ $ $ T@}#}#2#T@3#:#:#:#T@                    ",
"                  T@T@T@T@T@T@%#%#%#T@$ $ $ $ $ $ $ $ $ $ $ $ $ $ $ $ $ $ $ $ $ $ $ $ $ T@G@G@4#T@T@T@T@T@T@                    ",
"                  T@T@T@T@T@T@%#%#%#T@$ $ $ $ $ $ $ $ $ $ $ $ $ $ $ $ $ $ $ $ $ $ $ $ $ T@G@G@4#T@T@T@T@T@T@                    ",
"                  T@5#5#5#6#~#%#T@T@$ $ $ $ $ $ $ $ $ $ $ $ $ $ $ $ $ $ $ $ $ $ $ $ $ $ $ T@T@4#7#8#8#8#9#T@                    ",
"                  T@0#a#a#a#%#%#T@T@$ $ $ $ $ $ $ $ $ $ $ $ $ $ $ $ $ $ $ $ $ $ $ $ $ $ $ T@T@4#b#c#c#c#c#T@                    ",
"                  T@d#a#a#a#%#%#T@T@$ $ $ $ $ $ $ $ $ $ $ $ $ $ $ $ $ $ $ $ $ $ $ $ $ $ $ T@T@4#e#c#c#c#c#T@                    ",
"                  T@0#a#a#f#%#T@$ $ $ $ $ $ $ $ $ $ $ $ $ $ $ $ $ $ $ $ $ $ $ $ $ $ $ $ $ $ $ T@2#c#c#c#c#T@                    ",
"                  T@g#a#a#h#%#T@$ $ $ $ $ $ $ $ $ $ $ $ $ $ $ $ $ $ $ $ $ $ $ $ $ $ $ $ $ $ $ T@i#c#c#c#c#T@                    ",
"                  T@g#a#a#h#%#T@$ $ $ $ $ $ $ $ $ $ $ $ $ $ $ $ $ $ $ $ $ $ $ $ $ $ $ $ $ $ $ T@i#c#c#c#c#T@                    ",
"                  T@g#a#a#f#%#T@$ $ $ $ $ $ $ $ $ $ $ $ $ $ $ $ $ $ $ $ $ $ $ $ $ $ $ $ $ $ $ T@j#c#c#c#c#T@                    ",
"                  T@T@T@T@T@T@$ $ $ $ $ $ $ $ $ $ $ $ $ $ $ $ $ $ $ $ $ $ $ $ $ $ $ $ $ $ $ $ $ T@T@T@T@T@T@                    "};
