/* XPM */
static char *dummy[]={
"64 64 656 2",
"Qt c None",
"hK c #4d2711",
"gt c #4d2712",
"fA c #4e2812",
"fg c #4e2912",
"fh c #4f2812",
"gh c #4f2813",
"e7 c #4f2912",
"gb c #4f2913",
"eU c #502913",
"eJ c #502a14",
"eA c #502b15",
"ci c #512a13",
"fb c #512a14",
"b1 c #512b13",
"bE c #512b14",
"dT c #512b15",
"dK c #512c14",
"ed c #512c15",
"cQ c #522b14",
"d5 c #522b15",
"c0 c #522c15",
"g4 c #522d17",
"cS c #532c15",
"g5 c #532e17",
"gO c #532f18",
"gS c #532f19",
"cT c #542c15",
"cU c #542d15",
"dd c #542e16",
"hd c #542f18",
"g3 c #542f19",
"hc c #543019",
"cN c #552d15",
"cV c #552e15",
"g2 c #553019",
"bi c #553119",
"g1 c #55311a",
"cL c #562e15",
"c1 c #563018",
"hb c #56311a",
"cR c #573019",
"cF c #573119",
"b2 c #573219",
"fz c #57321b",
"g6 c #57331b",
"g0 c #57331c",
"g7 c #57341c",
"gL c #57351d",
"cj c #58321a",
"fi c #58321b",
"fy c #58331c",
"fq c #58341b",
"b. c #58341c",
"ha c #58341d",
"gT c #58341e",
"g8 c #58351d",
".E c #593117",
"fj c #59331c",
"h# c #59341d",
"h. c #59351d",
"gl c #59361d",
"gv c #59361e",
"gU c #59361f",
".q c #5a3117",
"fx c #5a341d",
".3 c #5a351b",
"bF c #5a351c",
"b0 c #5a351d",
"fw c #5a351e",
"g9 c #5a351f",
"a# c #5a361d",
"aY c #5a361e",
"gZ c #5a361f",
"gY c #5a3720",
"fk c #5b341d",
".G c #5b351a",
"eg c #5b351c",
"eL c #5b351d",
"fl c #5b361e",
"as c #5b371e",
"gX c #5b3821",
"eQ c #5c351e",
".s c #5c361b",
"bG c #5c361d",
"bZ c #5c361e",
"#j c #5c371b",
"bt c #5c371e",
"gV c #5c3822",
"gz c #5c3920",
"gW c #5c3922",
"eq c #5d371e",
"fv c #5d371f",
"fu c #5d3720",
"ev c #5d381f",
"fm c #5d3820",
"c5 c #5d391f",
"#P c #5d3b20",
"bH c #5e371e",
"bY c #5e371f",
".W c #5e381d",
"eC c #5e381f",
"ft c #5e3820",
"fs c #5e3821",
"bX c #5e3920",
"fn c #5e3921",
"dg c #5e3a20",
"#r c #5e3b21",
"gR c #5e3d23",
"#e c #5f391d",
"ei c #5f3920",
"fp c #5f3921",
"fa c #5f3922",
".7 c #5f3a1e",
"#v c #5f3b1f",
".4 c #5f3b21",
"gQ c #5f3d23",
"gH c #5f3e23",
"gN c #5f3e24",
"bI c #603920",
".B c #603a1e",
"bJ c #603a21",
"fZ c #603a22",
"#F c #603b1f",
"fc c #603b22",
"gD c #603e24",
"gM c #603e25",
"gq c #603f25",
"gA c #604025",
".M c #61391f",
"bW c #613b21",
"eh c #613b22",
"bV c #613b23",
"#a c #613c1f",
"#U c #613c20",
"gi c #613c21",
".J c #613d22",
"#p c #613e22",
"gK c #613f25",
"gy c #614025",
"go c #614026",
"ge c #614126",
"bK c #623c22",
"#A c #623d20",
"ae c #623d21",
"bU c #623d23",
"ax c #623e22",
"fJ c #624125",
"fY c #624126",
"gd c #624127",
"f8 c #624227",
"#Y c #633d21",
"bL c #633d23",
"bT c #633d24",
"gs c #633e21",
".d c #633f22",
".v c #634025",
".K c #634026",
"#I c #634124",
"ds c #634126",
"#7 c #634326",
"bM c #643e23",
"bN c #643e24",
".k c #643f23",
"b# c #644026",
".u c #644126",
"bj c #644128",
"aO c #644225",
"c3 c #644227",
"c2 c #644228",
"gr c #644428",
"fd c #644529",
"h7 c #644e3b",
"h6 c #644f3b",
"ii c #644f3c",
"bA c #653f25",
"at c #654127",
".t c #654226",
"gj c #654427",
"ao c #654428",
"c4 c #654429",
"e# c #654528",
"gk c #654529",
"e0 c #65452a",
"ih c #654f3b",
"h3 c #654f3c",
"ia c #654f3d",
"h5 c #65503c",
"h4 c #65503d",
".L c #663f25",
"bx c #664025",
"aZ c #664329",
"#K c #664528",
"dZ c #66452a",
"gn c #66462a",
"eS c #66472a",
"gm c #66482b",
"hL c #66523f",
"cu c #674126",
"#0 c #674427",
"aL c #674429",
"ai c #674527",
"#J c #674628",
"bc c #674629",
"dv c #67462a",
"gB c #67472b",
"dc c #67482b",
"gx c #67492c",
"hM c #675240",
"aB c #684628",
"#2 c #684629",
"a4 c #684729",
"cM c #68472a",
"dj c #68472b",
"a2 c #68482a",
"db c #68482b",
"da c #68492c",
"ib c #685642",
"bP c #694228",
"aa c #694529",
".5 c #69452a",
"al c #69482a",
"bb c #69482b",
"aH c #69482c",
"aE c #69492b",
"d# c #69492c",
"dI c #69492d",
"d. c #694a2c",
"dy c #694a2d",
"gp c #694b2e",
"i# c #695541",
"h2 c #695542",
"ic c #695642",
"#Q c #6a452a",
".x c #6a472a",
"bn c #6a492b",
"aT c #6a492c",
"c9 c #6a4a2c",
"a5 c #6a4a2d",
"bq c #6a4b2d",
"e9 c #6a4c2e",
"h8 c #6a5642",
"ig c #6a5743",
"if c #6a5744",
"hN c #6a5844",
"h1 c #6a5845",
".i c #6b472a",
".# c #6b492b",
"#s c #6b492c",
"aQ c #6b4a2b",
"bf c #6b4a2d",
"bm c #6b4b2d",
"bQ c #6b4b2e",
"dO c #6b4b2f",
"eV c #6b4c2f",
"gG c #6b4c31",
"eK c #6b4d2f",
"eB c #6b4d30",
"gF c #6b4d31",
"gE c #6b4e31",
"e5 c #6b553d",
"hO c #6b5844",
"hP c #6b5845",
"ij c #6b5846",
"h9 c #6b5945",
"hR c #6b5946",
"hS c #6b5947",
"by c #6c4c2e",
"aU c #6c4c2f",
"d0 c #6c4d30",
"eo c #6c4e30",
"eb c #6c4f30",
"bB c #6c4f31",
"e4 c #6c553d",
"ga c #6c553f",
"f3 c #6c5540",
"f2 c #6c563f",
"fP c #6c5640",
"id c #6c5945",
"hQ c #6c5946",
"h0 c #6c5a47",
"hT c #6c5a48",
"hZ c #6c5b47",
"hU c #6c5b48",
"i. c #6c5b49",
"in c #6c5c47",
"im c #6c5c48",
".j c #6d492c",
".a c #6d4a2d",
"d8 c #6d4e30",
"a6 c #6d4e31",
"a9 c #6d4e33",
"du c #6d4f31",
"eR c #6d4f32",
"d2 c #6d5032",
"fe c #6d5033",
"ff c #6d5034",
"e6 c #6d5134",
"e3 c #6d553e",
"e2 c #6d563e",
"fQ c #6d5740",
"hY c #6d5b48",
"hX c #6d5c48",
".w c #6e4c2f",
"c6 c #6e4f31",
"dh c #6e4f32",
"bh c #6e5032",
"br c #6e5033",
"dB c #6e5132",
"gu c #6e5133",
"e1 c #6e5134",
"gP c #6e5235",
".b c #6f4c2e",
".c c #6f4e30",
".g c #6f4e31",
".h c #6f4f31",
".f c #6f4f32",
"cX c #6f5032",
"ew c #6f5132",
"ej c #6f5133",
"#O c #6f5134",
"eT c #6f5135",
"dn c #6f5234",
"eI c #6f5235",
"eH c #6f5335",
"gI c #6f5336",
"ez c #6f5435",
"gw c #6f5436",
"cE c #6f5943",
"cD c #6f5a43",
"g# c #6f5c46",
"f1 c #6f5c47",
"f4 c #6f5d48",
"gg c #6f5e49",
".e c #704e31",
"#N c #705035",
"#q c #705135",
"ey c #705435",
"em c #705436",
"gJ c #705536",
"ec c #705537",
"f# c #705637",
"cG c #705a43",
"ck c #705b43",
"eY c #705c46",
"fR c #705d47",
"f5 c #705d48",
"ar c #715335",
"#9 c #715336",
"a. c #715435",
"el c #715436",
"ek c #715437",
"e8 c #715536",
"d4 c #715537",
"d3 c #715637",
"cH c #715a43",
"cl c #715b43",
"eW c #715c46",
"eX c #715d47",
"fS c #715e48",
"dS c #725538",
"d6 c #725637",
"dR c #725638",
"gf c #725737",
"dq c #725738",
"f7 c #725739",
"fX c #725839",
"cC c #72604a",
"ee c #735638",
"dr c #735738",
"dC c #735739",
"dp c #735838",
"de c #735839",
"do c #735939",
"cB c #73604a",
"cA c #73614a",
"eM c #73614b",
"g. c #73614c",
"f0 c #73614d",
"he c #73624c",
"hW c #736350",
"hz c #736351",
"hV c #736452",
"dD c #745838",
"df c #745839",
"eZ c #74583a",
"en c #74593a",
"eP c #74604a",
"eN c #74614c",
"eO c #74624c",
"f9 c #74634e",
"il c #746350",
"hy c #746451",
"hx c #746452",
"ie c #746453",
"ik c #746553",
"ay c #755737",
"#o c #755739",
"bu c #75593a",
"ep c #75593b",
"bl c #755a3a",
"ef c #755a3b",
"cm c #75624b",
"cn c #75624c",
"hf c #75624d",
"eF c #75634d",
"fT c #75634e",
"f6 c #75634f",
"eE c #75644e",
"fU c #75644f",
"eD c #75654e",
"hw c #756552",
"af c #765837",
"#x c #765838",
".2 c #76593b",
"a1 c #765a3a",
"d7 c #765a3b",
"d9 c #765a3c",
"gC c #765b3a",
"aN c #765b3b",
"e. c #765b3c",
"dW c #765b3d",
"eG c #765c3c",
"dY c #765c3d",
"dX c #765d3d",
"cI c #76634c",
"co c #76634d",
"hg c #76634e",
"fV c #76644f",
"hh c #766450",
"#b c #775a39",
"#D c #775a3a",
"#c c #775b39",
"#C c #775b3a",
"aw c #775b3b",
"dU c #775c3c",
"dV c #775c3d",
"dM c #775d3d",
"hA c #776450",
"hi c #776551",
"cP c #776650",
"gc c #776651",
"hv c #776653",
"hu c #776654",
"fH c #776751",
".1 c #785b3e",
"ad c #785c3b",
"dL c #785c3c",
"ex c #785c3d",
".I c #785c3e",
"#h c #785d3c",
"dF c #785d3d",
"di c #785d3f",
"bD c #785e3e",
"dQ c #785f3e",
"dE c #785f3f",
"cz c #786651",
"hj c #786652",
"fN c #786751",
".H c #795c3e",
"#g c #795d3c",
"#1 c #795e3b",
"#f c #795e3c",
"bC c #795e3e",
"cv c #795e3f",
"dJ c #795f3e",
"aI c #795f3f",
"dm c #795f40",
"dl c #79603f",
"dt c #796040",
"fO c #796751",
"fB c #796752",
"cO c #796851",
"cy c #796852",
"hk c #796854",
"ht c #796855",
"aC c #7a5e3d",
"bs c #7a5e3e",
"a7 c #7a5f3e",
"dA c #7a5f3f",
"#M c #7a5f40",
"aW c #7a603e",
"aJ c #7a603f",
"#6 c #7a6040",
"bg c #7a6140",
"f. c #7a6142",
"cJ c #7a6853",
"cK c #7a6854",
"cZ c #7a6952",
"ca c #7a6953",
"hs c #7a6956",
"cx c #7a6a53",
"hl c #7a6a56",
"au c #7b5f40",
"aV c #7b603f",
"#5 c #7b6040",
"an c #7b6041",
"#4 c #7b6140",
"aG c #7b6141",
"cp c #7b6954",
"cq c #7b6a54",
"fM c #7b6a56",
"cg c #7b6b55",
"hr c #7b6b58",
"ap c #7c6040",
"ak c #7c613e",
"aD c #7c613f",
"aF c #7c6140",
"aj c #7c6141",
"dP c #7c6142",
"d1 c #7c6143",
"dx c #7c6240",
"dz c #7c6242",
"ch c #7c6a55",
"cW c #7c6b55",
"fL c #7c6b56",
"fD c #7c6b57",
"cr c #7c6c55",
"b4 c #7c6c56",
"fE c #7c6c57",
"aS c #7d6140",
"#Z c #7d6141",
"#i c #7d6240",
"#B c #7d6241",
"dG c #7d6242",
"aR c #7d6243",
"bp c #7d6341",
"c7 c #7d6343",
"b3 c #7d6c55",
"cs c #7d6c56",
"b9 c #7d6d56",
"fC c #7d6d58",
"hq c #7d6d5b",
"hm c #7d6f5d",
"#H c #7e6240",
"#G c #7e6241",
"be c #7e6341",
"bv c #7e6343",
"#E c #7e6344",
"cw c #7e6443",
"bw c #7e6445",
"#z c #7f6342",
"#X c #7f6343",
"bd c #7f6441",
"#y c #7f6443",
"#W c #7f6444",
"ah c #7f6544",
"ce c #7f6e59",
"cd c #7f6f59",
"cc c #7f6f5a",
"cf c #7f705b",
"hn c #7f7262",
"aP c #806445",
"a3 c #806544",
"aA c #806545",
"#L c #806546",
"hp c #807362",
"ho c #807363",
"#d c #816645",
"b6 c #81705b",
"b7 c #81715b",
"b5 c #81715c",
"fK c #81715d",
"bo c #826746",
"am c #826848",
"c# c #826947",
"cY c #826948",
"hB c #827360",
"bz c #836847",
".6 c #836848",
"bR c #836947",
"#3 c #83694a",
"c8 c #836a49",
"#R c #84694a",
"ab c #846a4a",
"aX c #846b4d",
"fF c #847460",
"dk c #856b4b",
"ea c #856b4c",
"dN c #856c4c",
"aK c #856c4e",
"dH c #856d4c",
"cb c #857561",
"fG c #857661",
"hJ c #857764",
"hI c #857765",
"hH c #857865",
"hC c #857966",
".D c #866b4a",
".r c #866b4b",
"aq c #866c4e",
"dw c #866d4c",
"bk c #866d4f",
"a8 c #866e50",
"b8 c #867661",
"hD c #867966",
".F c #876b4b",
".p c #876c4b",
"#u c #876e4d",
"ag c #876e4f",
"ba c #876e50",
"#V c #876f4f",
".o c #886c4c",
"#S c #886e4d",
"az c #886e4e",
"#t c #886f4e",
"#8 c #886f51",
".8 c #896f4f",
"fW c #897b67",
".C c #8a704f",
".l c #8a714e",
".n c #8a714f",
"a0 c #8a7254",
".m c #8b714f",
"av c #8b7254",
".N c #8b7353",
"aM c #8b7455",
"eu c #8b7d68",
"fI c #8b7d69",
"#n c #8c7455",
"ct c #8c7d68",
"et c #8c7e68",
"es c #8c7e69",
"hG c #8c7f6d",
"hE c #8c7f6e",
".O c #8d7453",
"#m c #8d7455",
"#l c #8d7556",
"#k c #8e7556",
".P c #8e7653",
".0 c #8e7656",
"c. c #8e7f6a",
"fr c #8e7f6d",
"er c #8e806b",
"fo c #8e806d",
".y c #907756",
".z c #907857",
".A c #917858",
".Q c #917958",
"bS c #928371",
"ac c #937b5c",
".V c #937c5c",
"bO c #938472",
".U c #947c5c",
".Z c #947e5e",
"hF c #948776",
".Y c #957e5e",
".X c #957e5f",
"#T c #967d5f",
"#w c #977f61",
".T c #988162",
".R c #998263",
".S c #9a8364",
".9 c #9b8466",
"## c #9b8566",
"#. c #9b8567",
"QtQtQtQtQtQtQtQtQtQtQtQtQtQtQtQtQtQtQtQtQtQtQtQtQtQt.#.a.a.b.b.c.d.c.e.e.f.g.hQtQtQtQtQtQtQtQtQtQtQtQtQtQtQtQtQtQtQtQtQtQtQtQtQt",
"QtQtQtQtQtQtQtQtQtQtQtQtQtQtQtQtQtQtQtQt.i.i.j.i.k.k.l.m.n.o.o.p.q.p.p.p.r.r.r.s.s.t.u.v.vQtQtQtQtQtQtQtQtQtQtQtQtQtQtQtQtQtQtQt",
"QtQtQtQtQtQtQtQtQtQtQtQtQtQtQtQtQtQtQtQt.i.i.j.i.k.k.l.m.n.o.o.p.q.p.p.p.r.r.r.s.s.t.u.v.vQtQtQtQtQtQtQtQtQtQtQtQtQtQtQtQtQtQtQt",
"QtQtQtQtQtQtQtQtQtQtQtQtQtQtQtQtQtQt.w.x.y.y.z.A.B.B.C.m.n.o.o.D.E.p.F.F.r.r.r.G.G.H.H.I.I.J.KQtQtQtQtQtQtQtQtQtQtQtQtQtQtQtQtQt",
"QtQtQtQtQtQtQtQtQtQtQtQtQtQtQt.L.L.M.N.O.P.P.y.Q.B.B.R.S.T.U.U.V.W.X.X.X.Y.Z.0.G.G.H.H.I.I.1.2.3.4.4QtQtQtQtQtQtQtQtQtQtQtQtQtQt",
"QtQtQtQtQtQtQtQtQtQtQtQtQtQt.5.6.6.7.8.9.9.9#.###a#a#b#c#c#b#b#d#e#f#f#f#g#h#i#j#j#k#l#m#m#n#o#p#q#q#rQtQtQtQtQtQtQtQtQtQtQtQtQt",
"QtQtQtQtQtQtQtQtQtQtQtQtQt#s#t#u#u#v#w#x.8.8#y#z#A#A#B#B#C#D#D#E#F#f#f#f#G#G#H#I#I#J#K#L#L#M#n#p#N#N#O#PQtQtQtQtQtQtQtQtQtQtQtQt",
"QtQtQtQtQtQtQtQtQtQtQtQtQt#s#t#u#u#v#w#x.8.8#y#z#A#A#B#B#C#D#D#E#F#f#f#f#G#G#H#I#I#J#K#L#L#M#n#p#N#N#O#PQtQtQtQtQtQtQtQtQtQtQtQt",
"QtQtQtQtQtQtQtQtQtQtQtQt#Q#R#S#T#T#U#x#x#V#V#W#X#Y#Y#Z#Z#Z#D#D#E#0#f#1#1#G#G#H#2#2#K#3#4#4#5#6#7#8#8#9a.a#QtQtQtQtQtQtQtQtQtQtQt",
"QtQtQtQtQtQtQtQtQtQtQtQtaaabacadadaeafag#d#dah#Waiai#Zaj#Zajaj#E#0#f#G#G#G#Hakalalam#4anan#5#6aoapapaqarasQtQtQtQtQtQtQtQtQtQtQt",
"QtQtQtQtQtQtQtQtQtQtatatauavawadadaxayazaAaA#daA#0#0ajajajajaj#EaBaC#G#G#G#HaDaEaEaFaGanan#5#6aHaIaIaJaK#qasasQtQtQtQtQtQtQtQtQt",
"QtQtQtQtQtQtQtQtQtQtatatauavawadadaxayazaAaA#daA#0#0ajajajajaj#EaBaC#G#G#G#HaDaEaEaFaGanan#5#6aHaIaIaJaK#qasasQtQtQtQtQtQtQtQtQt",
"QtQtQtQtQtQtQtQtQtQtaLaLaMaNawadadaO.6#WahahahaPaQaQajajajananaR#2#H#H#H#H#iaSaTaTaj#5#5#5#6#MaUaVaVaJaWaXaYaYQtQtQtQtQtQtQtQtQt",
"QtQtQtQtQtQtQtQtQtaZauaua0a1awawawa2#Ea3a3a3a3#W.#.##5#5#5#5#5aAa4#H#H#HaS#B#Ba5a5aG#5#5#5#6#6a6aJaJaJa7a8a9a9b.QtQtQtQtQtQtQtQt",
"QtQtQtQtQtQtQtQtQtb#babaa1a1a1awawbb#E#Wa3a3a3#W.#.##5#5#5#5#5aAbcbdbebebebebebfbfanan#4#4bg#6bhaJaJaWa7a7a0a0biQtQtQtQtQtQtQtQt",
"QtQtQtQtQtQtQtQtQtbjbkbkbla1a1aNaNbm#X#W#W#Wa3#Wbnbn#5#5#5#5#5a3bcbobebebebebpbqbq#5#4#4#4#6#6braJaJa7a7bsa0a0biQtQtQtQtQtQtQtQt",
"QtQtQtQtQtQtQtQtQtbjbkbkbla1a1aNaNbm#X#W#W#Wa3#Wbnbn#5#5#5#5#5a3bcbobebebebebpbqbq#5#4#4#4#6#6braJaJa7a7bsa0a0biQtQtQtQtQtQtQtQt",
"QtQtQtQtQtQtQtQtQtbtbubububla1a1a1bmbvbvbwbwbx#Ebyby#M#M#M#M#M#Wbnbzbebebebebpa5a5#5bAbgbg#6#6bBaJaJa7bsbCbDbDbEQtQtQtQtQtQtQtQt",
"QtQtQtQtQtQtQtQtQtbFbGbGbGbHbIbJbJbKbLbMbNbNbObPbQbQ#M#M#M#M#M#WbbbRbebebebp#ia5a5bAbSbTbTbUbVbWbXbXbYbZb0b0b0b1QtQtQtQtQtQtQtQt",
"QtQtQtQtQtQtQtQtQtb2b3b3b4b5b6b7b7b8b8b8b8b8b9c.bxbx#M#M#M#M#M#Walc##B#Bbp#i#ibAbAbScacbcbcbcccdcecececfcgchchciQtQtQtQtQtQtQtQt",
"QtQtQtQtQtQtQtQtQtcjckckclcmcncococacpcqcrcrcsb3ctctcuaIcvcvcvcwalam#i#i#i#ibAbSbScxcacycyczcAcBcBcBcBcCcDcEcEciQtQtQtQtQtQtQtQt",
"QtQtQtQtQtQtQtQtQtcjckckclcmcncococacpcqcrcrcsb3ctctcuaIcvcvcvcwalam#i#i#i#ibAbSbScxcacycyczcAcBcBcBcBcCcDcEcEciQtQtQtQtQtQtQtQt",
"QtQtQtQtQtQtQtQtQtcFcGcGcHcmcmcIcIcJcKcpcgcgcsb3cLcLcvcvcvcvcvbvcMambebebebpbpcNcNcacacOcOcPcBcBcBcBcCcCcEcEcEcQQtQtQtQtQtQtQtQt",
"QtQtQtQtQtQtQtQtQtcRcScScScTcUcUcUcUcNcVcNcNcWcVcXcXcvcvcvcvcvbvcMcYbebe#B#B#Ba5a5cUcZcUcUcUcScScScSc0cQcQcQcQcQQtQtQtQtQtQtQtQt",
"QtQtQtQtQtQtQtQtQtc1c2c2c3c3c4aHaHc5a5a5bQbQcVc6cXcXcvcvcvcvcvc7cMc8bpbp#B#B#Ba5a5c9cUd.d.d#d#d#dadadadbdcdcdcbEQtQtQtQtQtQtQtQt",
"QtQtQtQtQtQtQtQtQtc1c2c2c3c3c4aHaHc5a5a5bQbQcVc6cXcXcvcvcvcvcvc7cMc8bpbp#B#B#Ba5a5c9cUd.d.d#d#d#dadadadbdcdcdcbEQtQtQtQtQtQtQtQt",
"QtQtQtQtQtQtQtQtQtdddededfdfdfdfdfdg#M#6#5#5a5dhdhdhdididididiaRdjdk#B#B#B#B#Ba5a5dld.#M#M#MdmdndododfdpdqdqdqbEQtQtQtQtQtQtQtQt",
"QtQtQtQtQtQtQtQtQtdddrdrdpdfdfdfdfdsandmdtdt#Mduc6c6dididididiaRdvdw#i#i#i#idxdydydzcvdAdAaIaIdBdCdCdrdqdqdqdqbEQtQtQtQtQtQtQtQt",
"QtQtQtQtQtQtQtQtQtdddrdrdrdrdDdDdDd.#5dicvcvdEa5c6c6dFdFdFdFdFdGdvdH#i#idxdxaFdIdIdzdJaIaIaIaIbhdrdrdrdqdqdqdqdKQtQtQtQtQtQtQtQt",
"QtQtQtQtQtQtQtQtQtdddrdrdrdrdrdrdrd.ajdL.I.I.IdIc6c6dFdMdMdFdFdzdvdNdxdxaFaFaFdOdOdPbDdQdQdQbDbhdRdRdRdSdSdSdSdTQtQtQtQtQtQtQtQt",
"QtQtQtQtQtQtQtQtQtdddrdrdrdrdrdrdrd.ajdL.I.I.IdIc6c6dFdMdMdFdFdzdvdNdxdxaFaFaFdOdOdPbDdQdQdQbDbhdRdRdRdSdSdSdSdTQtQtQtQtQtQtQtQt",
"QtQtQtQtQtQtQtQtQtc0dqdqdrdrdrdrdrd#aGdUdLdLdLdVa6a6dWdXdYdYdYdzdZdNaFaFaFaFaFd0d0d1bDdFdFdFdMd2d3d3d3d4d4d4d4d5QtQtQtQtQtQtQtQt",
"QtQtQtQtQtQtQtQtQtc0d6d6dqdqdrdrdrd#anaNaNaNaNd7d8d8d9e.dWdWdWdPe#eaaVaVaV#4#4ebebdPdUdFdFdMdMdud4d4d4d4d4ececedQtQtQtQtQtQtQtQt",
"QtQtQtQtQtQtQtQtQtd5d6d6dqdReedrdrd#anefbubua1a1d8d8d7d7d7egegbJbJeheieiaWaWaWejejajdU#h#hdMdFd0ekekelelemememdTQtQtQtQtQtQtQtQt",
"QtQtQtQtQtQtQtQtQtd5d6d6dqdReedrdrd#anefbubua1a1d8d8d7d7d7egegbJbJeheieiaWaWaWejejajdU#h#hdMdFd0ekekelelemememdTQtQtQtQtQtQtQtQt",
"QtQtQtQtQtQtQtQtQtd5d6d6d6d6d6drdrd#anefenendfdfeoeoepd7eqerereseseteueueva7a7ewewajdUexexdMdVd0eyeyeyezezezezdTQtQtQtQtQtQtQtQt",
"QtQtQtQtQtQtQtQtQteAd6d6d6d6d6d6d6eB#Mefdededrdrd0d0epepeCeDeDeEeEeDeFeFbZa7a7d2d2aGaNeGeGaNaNdceHeHeHeHeHeIeIeAQtQtQtQtQtQtQtQt",
"QtQtQtQtQtQtQtQtQteJd3d3d3d6d6d6d6eK#Md6dRdRdrdrd0d0epepeLeMeMeNcieOePePeQendJeReR#5bla1a1blbleSeHeHeTeTeIeIeIeJQtQtQtQtQtQtQtQt",
"QtQtQtQtQtQtQtQtQteUd4d4d3d3d6d6d6eV#Md6d6d6d6eed0d0buepcQeWeWeXcieXeYeYcQeneZeoeo#5d7d7d7d7d7e0e1e1e1e1e1eTeTeUQtQtQtQtQtQtQtQt",
"QtQtQtQtQtQtQtQtQteUd4d4d3d3d6d6d6eV#Md6d6d6d6eed0d0buepcQeWeWeXcieXeYeYcQeneZeoeo#5d7d7d7d7d7e0e1e1e1e1e1eTeTeUQtQtQtQtQtQtQtQt",
"QtQtQtQtQtQtQtQtQteUd4d4d4d3d3d3d3eV#Md6d6d6d6d6eVeVdeeZcie2e2e3e2e4e5e5eUdfdfeVeV#5awaNaNd7efe0e1e1e1e1e6e6e6eUQtQtQtQtQtQtQtQt",
"QtQtQtQtQtQtQtQtQte7e8e8d4d4d4d4d4e9f.f#d3d3fad3eVeVdededbeUeUeUeUfbeUeUdbdfdfeKeKaIfcaNaNaNd7fde1e1fefffffefefgQtQtQtQtQtQtQtQt",
"QtQtQtQtQtQtQtQtQtfhfifififjfkflflevfmbXfnfnfofpeVeVdedededbdbdbfqdbdbdbdfdedeeoeofcfrfsfsftfufvfwfwfxfyfzfzfzfAQtQtQtQtQtQtQtQt",
"QtQtQtQtQtQtQtQtQtfhfifififjfkflflevfmbXfnfnfofpeVeVdedededbdbdbfqdbdbdbdfdedeeoeofcfrfsfsftfufvfwfwfxfyfzfzfzfAQtQtQtQtQtQtQtQt",
"QtQtQtQtQtQtQtQtQtfAcycyfBfCfDfEfEfFfFfFfGfGfHfIfnfndedededededefJdUdfdfdedCepfcfcfreEfKfKfKfLfMfMfMfMfEfNfOfOfAQtQtQtQtQtQtQtQt",
"QtQtQtQtQtQtQtQtQtfAfPfPfQfRfSfSfSfTfUfVcPcPfNfNfWfWfnd3fXfXfXfXfYdedCdCdCeZfZfrfreEeEeEeEf0f1f1f1f1f1f1f2f2f2fAQtQtQtQtQtQtQtQt",
"QtQtQtQtQtQtQtQtQtfAfPfPf3f4f5fSfSfTf6fVcPcPfNfNeJeJdRd4f7f7f7f7f8dqdqdqdrdCeyeUeUeEeEf9f9g.f1g#g#g#g#g#gaf2f2fAQtQtQtQtQtQtQtQt",
"QtQtQtQtQtQtQtQtQtfAgbgbgbgbeUeUeUeUeUeUeUeUgceUgdgddRe8d4dqdqdqgegfdqdqgfgfeygdgdeUgggbgbgbgbgbgbgbgbgbghgbgbfAQtQtQtQtQtQtQtQt",
"QtQtQtQtQtQtQtQtQtfAgbgbgbgbeUeUeUeUeUeUeUeUgceUgdgddRe8d4dqdqdqgegfdqdqgfgfeygdgdeUgggbgbgbgbgbgbgbgbgbghgbgbfAQtQtQtQtQtQtQtQt",
"QtQtQtQtQtQtQtQtQtfAgigiax#Igjgkgkglgmd.dydyeUgnfYfYd6e8e8e8e8dqgogfememeyeyezgegegpgbgkgkgkgkgqgrgr#I.dgs.d.dgtQtQtQtQtQtQtQtQt",
"QtQtQtQtQtQtQtQtQtfAgugugubhbhgugugvgwgwgwgwgxemgygye8e8e8e8e8e8gzgfezezeHeHeHgAgAefgBgCgCgCgCgDgEgEgFgGgGgGgGgtQtQtQtQtQtQtQtQt",
"QtQtQtQtQtQtQtQtQtfAgugubhbhbhgugugHgIgIgIgIgIgJgKgKe8e8gJe8e8e8gLgIeHeHezeHeHgMgMefd7d7d7a1blgNgFgFgFgGgGgGgGgtQtQtQtQtQtQtQtQt",
"QtQtQtQtQtQtQtQtQtfAgugugugugugugugHgIgIgIgIgIgwgNgNemgJgJemememgOgIeHeHeHgPeHgQgQefefblblbublgRgFgFgFgGgGgGgGgtQtQtQtQtQtQtQtQt",
"QtQtQtQtQtQtQtQtQtfAgugugugugugugugHgIgIgIgIgIgwgNgNemgJgJemememgOgIeHeHeHgPeHgQgQefefblblbublgRgFgFgFgGgGgGgGgtQtQtQtQtQtQtQtQt",
"QtQtQtQtQtQtQtQtQtfAgSgSgTgUgVgVgVgWgXgYgYgYgUgZg0g0g1g2g3g4g4fAedg5gOgOg1g6g7g8g8g9h.h#h#b.hahbg2g2hchdgtgtgtgtQtQtQtQtQtQtQtQt",
"QtQtQtQtQtQtQtQtQtfAcocohehfhghhhhhihigchjhjhkhkhkhkhkhkhlhmhmhnfAhohphphqhrhshthththuhvhvhwhxhyhyhyhzhzhyhAhAgtQtQtQtQtQtQtQtQt",
"QtQtQtQtQtQtQtQtQtfAhBhBhChDhDhDhDhDhDhDhDhDhDhEhEhEhEhEhEhFhFhFfAhFhFhFhEhGhEhGhGhHhHhHhHhHhHhHhIhIhJhJhJhJhJhKQtQtQtQtQtQtQtQt",
"QtQtQtQtQtQtQtQtQtfAhBhBhChDhDhDhDhDhDhDhDhDhDhEhEhEhEhEhEhFhFhFfAhFhFhFhEhGhEhGhGhHhHhHhHhHhHhHhIhIhJhJhJhJhJhKQtQtQtQtQtQtQtQt",
"QtQtQtQtQtQtQtQtQtfAhLhLhLhLhLhMhMhMhMhMhNhNhOhPhQhQhRhShThUhUhVfAhWhXhXhXhXhYhZhZh0hQh1h1h2h2h2h3h3h4h5h6h7h7gtQtQtQtQtQtQtQtQt",
"QtQtQtQtQtQtQtQtQtfAhLhLhLhLhLhLhLhLhMh8hNhNhOh9hQhQhRhRhTi.i.hxfAhWhXhXhXhXhZhZhZhZhQh9h9h2h2i#h3h3h3h3h7h7h7gtQtQtQtQtQtQtQtQt",
"QtQtQtQtQtQtQtQtQtfAiaiaiaiahLibibibibichNhNhNh9ididhRhRhTi.i.iefAhWhXhXhXhXhUhZhZhZifififigh2h2i#i#i#ihh7h7h7gtQtQtQtQtQtQtQtQt",
"QtQtQtQtQtQtQtQtQtfAiiiiiaiiibibibibibibhNhNhOijhQhQhRh0hThThTikfAilhXhXimhXimininhZhQififigh2h2i#i#i#i#h7h7h7hKQtQtQtQtQtQtQtQt",
"QtQtQtQtQtQtQtQtQtfAiiiiiaiiibibibibibibhNhNhOijhQhQhRh0hThThTikfAilhXhXimhXimininhZhQififigh2h2i#i#i#i#h7h7h7hKQtQtQtQtQtQtQtQt",
"QtQtQtQtQtQtQtQtQtgtgtgtfAfAfAfAfAfAfAfAfAfAfAfAfAfAfAfAfAfAfAfAfAfAfAfAfAfAfAfAfAfAgtgtgtgtgtgtgtgtgtgthKhKhKhKQtQtQtQtQtQtQtQt"};
