/* XPM */
static char *dummy[]={
"64 64 6 1",
"b c #656c17",
"d c #686f16",
". c #72751b",
"# c #787b21",
"c c #7f8124",
"a c #7f8226",
"................................................................",
"................................................................",
"................................................................",
"............................................#...................",
"....................#...........................................",
"..................a#ba#.........................................",
".................a####..........................................",
"..................#.b............#a.a...........................",
"...................a..............#.#................#..........",
"..................................................a##b..........",
"...................................................#b...........",
"................................................................",
"................................................................",
"..........................................................#.a...",
"..........................................................b.b...",
"................................................................",
"................................................................",
"................................................................",
"................................................................",
"..........................................a.....................",
"............................a..............#.a..................",
"..........................a#b.a...........#b#b..................",
".....a....................##.#b...........b.....................",
"...a#b.a..................bb.....................#.a............",
"...##.#b.........................................b#b............",
"...bb.............................................#.............",
"................................................................",
"...........................................................#a...",
"...........................................................#....",
"...................#..a.........................................",
"...................b.#..........................................",
".....................b..........................................",
"................................................................",
"................................................................",
".......................a........................................",
".......................#b#a..............................#..a...",
"........................#b................................##b...",
"..........a.#..............................................b....",
"..........#.b...................................................",
".......................................#.c......................",
"............................#b........#.#dc.....................",
".............................#..........d#......................",
"................................................................",
"...................a##..........................................",
"..................a#b#..........................................",
"...................#..............c#............................",
"...................................d............................",
"................................................................",
"................................................................",
"................................................................",
"...c.............#..............................................",
"...#..............#.........................c...................",
"..#...............##c.......................#...................",
"...................d......#.#...................................",
".........................#.#dc............................#.c...",
"...........................d#...........................d#d#d...",
".......................c.................................d.d#...",
"...c...................d#.........c..#................c.........",
"..#c##d.......#..................#c##d................d#........",
"...#.#............................#.#...........................",
"........c.........#.#.........c.................................",
".........##.......#.d.......c#d.................................",
".........d..................#...................................",
"................................................................"};
