/* XPM */
static char *dummy[]={
"64 64 8 1",
"# c None",
". c None",
"a c #17111a",
"e c #9e6138",
"d c #b05731",
"c c #f2a633",
"b c #ffe433",
"f c #fffad6",
".......###########...........###################################",
".............................###################################",
".###############################################################",
".###############################################################",
".###############################################################",
".##############################aaaaaaaaa########################",
".##############################aaaaaaaaa########################",
".##############################aaaaaaaaa########################",
".############################aabbbbbbbccaaaaaa##################",
".############################aabbbbbbbccaaaaaa##################",
".############################aabbbbbbbccaaaaaa##################",
".#########################aaabbbbbbbbbbbbbbbccaaaaaaa###########",
".#########################aaabbbbbbbbbbbbbbbccaaaaaaa###########",
".#######################aabbbbbbbbbbbbbbbbbbbbbbbbbccaa#########",
".#######################aabbbbbbbbbbbbbbbbbbbbbbbbbccaa#########",
".#######################aabbbbbbbbbbbbbbbbbbbbbbbbbccaa#########",
".#####################aabbbbbbbbbbbbbbbbbbbbbbbbbbbddaa#########",
".#####################aabbbbbbbbbbbbbbbbbbbbbbbbbbbddaa#########",
".#####################aabbbbbbbbbbbbbbbbbbbbbbbbbbbddaa#########",
".###################aabbbbbbbbbbbbbbbbbbbbbbbbbbbddeeeeaa#######",
".###################aabbbbbbbbbbbbbbbbbbbbbbbbbbbddeeeeaa#######",
".#################aabbbbbbbbbbbbbbbbbbbbbbbbbbdddeeeeeeaa#######",
".#################aabbbbbbbbbbbbbbbbbbbbbbbbbbdddeeeeeeaa#######",
".#################aabbbbbbbbbbbbbbbbbbbbbbbbbbdddeeeeeeaa#######",
"###############aaabbbbbbbbbbbbbbbbbbbbbbbbbbddeeeeeeeeeeeaaa####",
"###############aaabbbbbbbbbbbbbbbbbbbbbbbbbbddeeeeeeeeeeeaaa####",
"###############aaabbbbbbbbbbbbbbbbbbbbbbbbbbddeeeeeeeeeeeaaa####",
"#############aabbbbbbbbbbbbbbbbbbbbbbbbbbbddeeeeeeeeeeeeeaaa####",
"#############aabbbbbbbbbbbbbbbbbbbbbbbbbbbddeeeeeeeeeeeeeaaa####",
"###########aabbbbbbbbbbbbbbbbbbbbbbbbbbbddeeeeeeeeeeeeeaa#######",
"###########aabbbbbbbbbbbbbbbbbbbbbbbbbbbddeeeeeeeeeeeeeaa#######",
"###########aabbbbbbbbbbbbbbbbbbbbbbbbbbbddeeeeeeeeeeeeeaa#######",
"#########aabbbbbbbbbbbbbbbbbbbbbbbbbbbddeeeeeeeeeeeeeaa#########",
"#########aabbbbbbbbbbbbbbbbbbbbbbbbbbbddeeeeeeeeeeeeeaa#########",
"#########aabbbbbbbbbbbbbbbbbbbbbbbbbbbddeeeeeeeeeeeeeaa#########",
"#######aabbbbbbbbbbbbbbbbbbbbbbbbbbdddeeeeeeeeeeeeeaa###########",
"#######aabbbbbbbbbbbbbbbbbbbbbbbbbbdddeeeeeeeeeeeeeaa###########",
"####aaaffffffbbbbbbbbbbbbbbbbbbbbddeeeeeeeeeeeeeeaa#############",
"####aaaffffffbbbbbbbbbbbbbbbbbbbbddeeeeeeeeeeeeeeaa#############",
"####aaaffffffbbbbbbbbbbbbbbbbbbbbddeeeeeeeeeeeeeeaa#############",
"####aaaccccccfffffffbbbbbbbbbbbddeeeeeeeeeeeeeaaa###############",
"####aaaccccccfffffffbbbbbbbbbbbddeeeeeeeeeeeeeaaa###############",
"####aaaccccccfffffffbbbbbbbbbbbddeeeeeeeeeeeeeaaa###############",
"##aaccccccccccccccccfffffffffddeeeeeeeeeeeeeaa##################",
"##aaccccccccccccccccfffffffffddeeeeeeeeeeeeeaa##################",
"##aaccccccccccccccccccccccdddeeeeeeeeeeeeeaa####################",
"##aaccccccccccccccccccccccdddeeeeeeeeeeeeeaa####################",
"##aaccccccccccccccccccccccdddeeeeeeeeeeeeeaa####################",
"##aaccccccccccccccccccccccdddeeeeeeeeeeeaa######################",
"##aaccccccccccccccccccccccdddeeeeeeeeeeeaa######################",
"##aaccccccccccccccccccccccdddeeeeeeeeeeeaa######################",
"##aaccccccccccccccccccccccdddeeeeeeeeeaa########################",
"##aaccccccccccccccccccccccdddeeeeeeeeeaa########################",
"####aaaaaaaccccccccccccccccccddeeeeaaa##########################",
"####aaaaaaaccccccccccccccccccddeeeeaaa##########################",
"####aaaaaaaccccccccccccccccccddeeeeaaa##########################",
"###########aaaaaaacccccccccccddeeaa#############################",
"###########aaaaaaacccccccccccddeeaa#############################",
"###########aaaaaaacccccccccccddeeaa#############################",
"##################aaaaaacccccddaa###############################",
"##################aaaaaacccccddaa###############################",
"########################aaaaaaa#################################",
"########################aaaaaaa#################################",
"########################aaaaaaa#################################"};
