/* XPM */
static char *dummy[]={
"64 64 22 1",
". c None",
"c c None",
"j c #0098dc",
"g c #131313",
"# c #1b1b1b",
"q c #2a2f4e",
"n c #391f21",
"h c #3d3d3d",
"m c #424c6e",
"p c #571c27",
"o c #5d2c28",
"d c #657392",
"b c #8e251d",
"e c #92a1b9",
"a c #c64524",
"f c #c7cfdd",
"k c #e69c69",
"r c #ed7614",
"l c #f6ca9f",
"s c #ffa214",
"t c #ffc825",
"i c #ffffff",
"................................................................",
"................................................................",
"................................................................",
"................................................................",
"................................................................",
"................................................................",
"................................................................",
"................................................................",
"................................................................",
"................................................................",
"................................................................",
"................................................................",
"................................................................",
"................................................................",
"............................####................................",
"...........................#aabb#...............................",
"..........................#aaaabb####...........................",
".........................c#aaabbdeeff#..........................",
".........................#aaabbdefffde#.........................",
".........................#aabbdefffdfde#........................",
".........................#aabdeffeefffde#.......................",
"........................#aaabddedffgfged#.......................",
"........................#aabbdedfgfgfged#.......................",
".........................#ab#dedfhfhfhe#........................",
".........................#bb##dddijkkj#.........................",
".........................#b##.#deellkke#........................",
".........................#b#f#bbdellkde#........................",
"........................#bbfffebbaaab##.........................",
"........................#befffedbbaaam#.........................",
".........................#deeeedbbbaem####......................",
".........................#fddeddeeefemdeee#.....................",
"........................#dffeddeefffednnooe#....................",
".......................#afddemddeeffemnnoooe#...................",
"......................#aaffeppmdeeffemdnoooe#...................",
".....................#aaabfeppmddeeemmmqnooe#...................",
"....................#aaabrddppssddeedmqddooe#...................",
"....................#aaabrfeesfbbbbbdnmmdooe#...................",
"...................#aaabbbffesfffaaabnnmmnoe#...................",
"...................#aaabbb##tfiifffaabnnnne#....................",
"...................#aaabb#.#tbbiiifffbnnnnd#....................",
"...................#aaab#..#bbbbaiiifffnnd#.....................",
"....................#aa#...#bbbe##diiiffd#......................",
"....................#aa#..#fbde#..#dmiii#.......................",
".....................#a#..#ffe#...#dmee#........................",
"......................#..#efee#....#dee#........................",
".........................#eee#......#dd#........................",
".........................#ee#.......#dd#........................",
"........................#ede#.......#dmm#.......................",
"........................#fed#.......#mddd#......................",
".......................#fffe#.......#ddeee#.....................",
"........................####.........#####......................",
"................................................................",
"................................................................",
"................................................................",
"................................................................",
"................................................................",
"................................................................",
"................................................................",
"................................................................",
"................................................................",
"................................................................",
"................................................................",
"................................................................",
"................................................................"};
