/* XPM */
static char *dummy[]={
"64 64 137 2",
".# c None",
".E c #4f2913",
".G c #4f311e",
".K c #4f3625",
"#e c #512d19",
"#f c #512e19",
"#g c #512e1a",
"#S c #512f1b",
"#0 c #522f1b",
"#h c #52301c",
"#o c #52301d",
"#p c #52301e",
"#l c #52311e",
".x c #53321e",
"#n c #53321f",
"#m c #533220",
"## c #533320",
"#a c #533321",
"#r c #543321",
"#i c #543422",
"#R c #543523",
".M c #543624",
".S c #553726",
".T c #553827",
"#1 c #553927",
"ab c #56321c",
"#s c #563929",
"#2 c #563a28",
".R c #563b2a",
"#G c #563c2c",
".Q c #563d2c",
"#d c #573c2d",
"#I c #573d2d",
"#D c #573d2e",
"#3 c #573e2e",
"#k c #583e2e",
".U c #583f30",
".L c #584132",
".v c #593d2a",
"#J c #594032",
"#L c #594234",
"#N c #594235",
"Qt c #5a3b27",
"aa c #5a4537",
"#Q c #5a4538",
"#4 c #5a4638",
".m c #5b4231",
"#j c #5b4435",
"#q c #5b4538",
"#t c #5b473a",
"#c c #5b483b",
"#U c #5b493c",
"#T c #5c4b3e",
"#9 c #5c4d41",
".H c #5c5147",
".F c #5c5247",
"#E c #5d4c41",
".O c #5d4d41",
"#Z c #5d4d42",
"#Y c #5d4e42",
"#X c #5d4e43",
"#W c #5d4f43",
"#V c #5d5044",
".I c #5d5247",
".J c #5d5248",
"ad c #5e3b25",
".c c #5e4532",
"#P c #5e4f44",
"#K c #5e4f45",
".N c #5e5146",
".P c #5f5349",
"#6 c #60554c",
"#7 c #60554d",
"#8 c #60564d",
"#5 c #60564e",
"a. c #60564f",
"a# c #61574f",
"#H c #615851",
".d c #624937",
"#C c #625449",
"#B c #62554a",
"#A c #62554b",
"#z c #62564b",
"#y c #63564c",
"#x c #63574d",
"#w c #645850",
"ae c #655444",
"#M c #655c55",
"#O c #655d56",
".j c #665444",
"#F c #665f58",
"ag c #666057",
".e c #675544",
"#v c #675f56",
".D c #676159",
".B c #676259",
".C c #68625a",
".A c #68635a",
".z c #69635b",
".y c #69645b",
"#u c #69645c",
".w c #6a645c",
".t c #6a655c",
".u c #6a665c",
".s c #6b655d",
".r c #6b665d",
".p c #6b675d",
".q c #6c665e",
".o c #6c675e",
".4 c #6c675f",
".n c #6c685e",
".l c #6d685f",
".6 c #6d6861",
".k c #6d695f",
"#b c #726e67",
".1 c #736e66",
".3 c #736e67",
".5 c #736f68",
".0 c #746f67",
"#. c #746f69",
".Z c #747068",
".9 c #747069",
".7 c #74706a",
".Y c #757068",
".X c #757169",
".2 c #75716a",
".8 c #75716b",
".W c #76726b",
".V c #76726c",
"ac c #767469",
"af c #86847b",
".a c #868579",
".b c #88877b",
".f c #918f88",
".g c #929088",
".h c #94928b",
".i c #99978f",
"QtQtQtQtQtQtQtQtQtQtQtQtQtQtQtQt.#QtQtQtQtQtQtQtQtQtQtQtQtQtQtQtQtQtQtQtQtQtQtQtQtQtQtQtQtQtQtQt.#QtQtQtQtQtQtQtQtQtQtQtQtQtQtQt",
".a.a.a.a.a.a.a.a.a.a.a.a.a.a.b.a.c.a.a.a.a.a.a.a.a.a.a.a.a.a.a.a.a.a.a.a.a.a.a.a.a.a.a.a.a.a.b.a.c.a.a.a.a.a.a.a.a.a.a.a.a.a.a.a",
".a.a.a.a.a.a.a.a.a.a.a.a.a.a.a.a.d.a.a.a.a.a.a.a.a.a.a.a.a.a.a.a.a.a.a.a.a.a.a.a.a.a.a.a.a.a.a.a.d.a.a.a.a.a.a.a.a.a.a.a.a.a.a.a",
".a.a.a.a.a.a.a.a.a.a.a.a.a.a.a.a.e.a.a.a.a.a.a.a.a.a.a.a.a.a.a.a.a.a.a.a.a.a.a.a.a.a.a.a.a.a.a.a.e.a.a.a.a.a.a.a.a.a.a.a.a.a.a.a",
".f.f.f.f.f.f.f.f.f.f.f.g.h.i.i.i.j.h.i.i.i.h.h.h.h.h.h.h.h.h.h.h.f.f.f.f.f.f.f.f.f.f.f.g.h.i.i.i.j.h.i.i.i.h.h.h.h.h.h.h.h.h.h.h",
".k.k.k.l.l.l.l.l.l.l.k.k.k.k.k.l.m.l.l.l.n.l.l.l.l.l.o.n.n.n.n.n.k.k.k.l.l.l.l.l.l.l.k.k.k.k.k.l.m.l.l.l.n.l.l.l.l.l.o.n.n.n.n.n",
".l.l.l.l.l.l.l.l.l.l.l.l.l.k.l.l.m.l.l.n.n.n.l.l.l.n.o.o.o.o.o.o.l.l.l.l.l.l.l.l.l.l.l.l.l.k.l.l.m.l.l.n.n.n.l.l.l.n.o.o.o.o.o.o",
".l.l.l.l.l.l.l.l.n.n.n.n.n.n.o.o.m.l.n.n.o.o.n.n.n.o.o.o.o.o.o.o.l.l.l.l.l.l.l.l.n.n.n.n.n.n.o.o.m.l.n.n.o.o.n.n.n.o.o.o.o.o.o.o",
".l.n.n.n.n.n.n.n.n.n.n.o.o.o.o.o.m.o.o.o.o.o.p.p.o.o.o.o.o.q.r.r.l.n.n.n.n.n.n.n.n.n.n.o.o.o.o.o.m.o.o.o.o.o.p.p.o.o.o.o.o.q.r.r",
".o.o.o.o.o.o.o.o.o.o.o.p.p.p.p.p.m.r.r.r.r.r.r.r.r.r.r.r.r.r.r.r.o.o.o.o.o.o.o.o.o.o.o.p.p.p.p.p.m.r.r.r.r.r.r.r.r.r.r.r.r.r.r.r",
".p.r.r.r.r.r.r.r.r.r.r.r.r.r.r.r.m.r.r.r.r.r.s.s.t.t.t.t.u.u.u.u.p.r.r.r.r.r.r.r.r.r.r.r.r.r.r.r.m.r.r.r.r.r.s.s.t.t.t.t.u.u.u.u",
".t.t.t.t.t.t.t.t.t.t.t.t.s.s.s.s.v.s.s.t.w.w.w.w.w.w.w.w.t.t.t.t.t.t.t.t.t.t.t.t.t.t.t.t.s.s.s.s.v.s.s.t.w.w.w.w.w.w.w.w.t.t.t.t",
".t.t.t.t.t.t.t.t.t.t.t.t.t.t.w.t.x.y.y.y.y.y.y.y.y.y.y.y.y.y.y.y.t.t.t.t.t.t.t.t.t.t.t.t.t.t.w.t.x.y.y.y.y.y.y.y.y.y.y.y.y.y.y.y",
".y.y.w.y.y.y.y.y.y.y.y.y.y.y.y.y.x.z.z.z.z.z.z.y.y.y.y.y.y.y.y.y.y.y.w.y.y.y.y.y.y.y.y.y.y.y.y.y.x.z.z.z.z.z.z.y.y.y.y.y.y.y.y.y",
".z.z.z.z.z.z.z.z.z.z.z.z.z.z.A.A.x.A.A.A.A.A.A.A.A.A.A.A.A.A.z.z.z.z.z.z.z.z.z.z.z.z.z.z.z.z.A.A.x.A.A.A.A.A.A.A.A.A.A.A.A.A.z.z",
".B.B.B.B.B.B.B.C.B.C.C.C.A.A.A.C.x.C.C.C.C.C.C.C.C.C.A.A.C.A.A.A.B.B.B.B.B.B.B.C.B.C.C.C.A.A.A.C.x.C.C.C.C.C.C.C.C.C.A.A.C.A.A.A",
".D.D.D.D.D.D.D.D.D.D.D.D.D.D.D.D.x.D.D.D.D.D.D.D.D.D.D.D.D.D.D.D.D.D.D.D.D.D.D.D.D.D.D.D.D.D.D.D.x.D.D.D.D.D.D.D.D.D.D.D.D.D.D.D",
".D.D.D.D.D.D.D.D.D.D.D.D.D.D.D.D.E.D.D.D.D.D.D.D.D.D.D.D.D.D.D.D.D.D.D.D.D.D.D.D.D.D.D.D.D.D.D.D.E.D.D.D.D.D.D.D.D.D.D.D.D.D.D.D",
".E.E.E.E.E.E.E.E.E.E.E.E.E.E.E.E.F.E.E.E.E.E.E.E.E.E.E.E.E.E.E.E.E.E.E.E.E.E.E.E.E.E.E.E.E.E.E.E.F.E.E.E.E.E.E.E.E.E.E.E.E.E.E.E",
".F.F.F.F.F.F.F.F.F.F.F.F.F.F.F.F.F.F.F.F.F.F.F.G.H.H.F.I.I.I.I.J.F.F.F.F.F.F.F.F.F.F.F.F.F.F.F.F.F.F.F.F.F.F.F.G.H.H.F.I.I.I.I.J",
".F.F.F.F.F.F.F.F.F.F.F.F.F.F.F.F.F.F.F.F.F.F.F.G.F.F.I.I.I.I.I.J.F.F.F.F.F.F.F.F.F.F.F.F.F.F.F.F.F.F.F.F.F.F.F.G.F.F.I.I.I.I.I.J",
".F.F.F.F.F.F.F.F.F.F.F.F.F.F.F.F.F.F.F.F.F.F.F.K.F.F.I.I.I.I.I.J.F.F.F.F.F.F.F.F.F.F.F.F.F.F.F.F.F.F.F.F.F.F.F.K.F.F.I.I.I.I.I.J",
".F.F.F.F.F.F.F.F.F.F.F.F.F.F.F.F.F.F.F.F.F.F.F.K.F.F.F.I.I.I.I.J.F.F.F.F.F.F.F.F.F.F.F.F.F.F.F.F.F.F.F.F.F.F.F.K.F.F.F.I.I.I.I.J",
".F.F.F.F.F.F.F.F.F.F.F.F.F.F.F.F.F.F.F.F.F.F.F.K.F.F.F.I.I.I.I.J.F.F.F.F.F.F.F.F.F.F.F.F.F.F.F.F.F.F.F.F.F.F.F.K.F.F.F.I.I.I.I.J",
".F.F.F.F.F.F.F.F.F.F.F.F.F.F.F.F.F.F.F.F.F.F.F.K.H.H.F.I.I.I.I.I.F.F.F.F.F.F.F.F.F.F.F.F.F.F.F.F.F.F.F.F.F.F.F.K.H.H.F.I.I.I.I.I",
".D.D.D.D.D.D.D.D.D.D.D.D.D.D.D.D.D.D.D.D.D.D.D.L.D.D.D.D.D.D.D.D.D.D.D.D.D.D.D.D.D.D.D.D.D.D.D.D.D.D.D.D.D.D.D.L.D.D.D.D.D.D.D.D",
".D.D.D.D.D.D.D.D.D.D.D.D.D.D.D.D.D.D.D.D.D.D.D.M.D.D.D.D.D.D.D.D.D.D.D.D.D.D.D.D.D.D.D.D.D.D.D.D.D.D.D.D.D.D.D.M.D.D.D.D.D.D.D.D",
".N.N.N.N.N.O.O.O.N.N.N.P.P.P.P.P.P.P.P.L.L.Q.R.S.T.U.P.P.P.P.P.P.N.N.N.N.N.O.O.O.N.N.N.P.P.P.P.P.P.P.P.L.L.Q.R.S.T.U.P.P.P.P.P.P",
".l.l.l.l.l.l.O.O.V.V.V.V.V.V.V.W.W.X.Y.Y.Z.0.0.0.0.0.1.1.1.1.1.1.1.2.W.W.3.1.O.4.4.4.4.4.4.4.4.4.4.4.4.4.4.4.4.4.4.4.4.4.4.4.4.4",
".D.D.D.D.D.D.O.5.6.6.6.6.6.6.6.6.6.6.6.6.6.6.6.6.6.6.6.6.6.6.6.6.6.6.6.6.6.6.O.D.D.D.D.D.D.D.D.D.D.D.D.D.D.D.D.D.D.D.D.D.D.D.D.D",
".D.D.D.D.D.D.O.7.6.6.6.6.6.6.6.6.6.6.6.6.6.6.6.6.6.6.6.6.6.6.6.6.6.6.6.6.6.6.O.D.D.D.D.D.D.D.D.D.D.D.D.D.D.D.D.D.D.D.D.D.D.D.D.D",
".D.D.D.D.D.D.O.8.6.6.6.6.6.6.6.6.6.6.6.6.6.6.6.6.6.6.6.6.6.6.6.6.6.6.6.6.6.6.O.D.D.D.D.D.D.D.D.D.D.D.D.D.D.D.D.D.D.D.D.D.D.D.D.D",
".D.D.D.D.D.D.O.8.6.6.6.6.6.6.6.6.6.6.6.6.6.6.6.6.6.6.6.6.6.6.6.6.6.6.6.6.6.6.O.D.D.D.D.D.D.D.D.D.D.D.D.D.D.D.D.D.D.D.D.D.D.D.D.D",
".D.D.D.D.D.D.O.9.6.6.6.6.6.6.6.6.6.6.6.6.6.6.6.6.6.6.6.6.6.6.6.6.6.6.6.6.6.6.O.D.D.D.D.D.D.D.D.D.D.D.D.D.D.D.D.D.D.D.D.D.D.D.D.D",
".D.D.D.D.D.D.L#..6.6.6.6.6.6.6.6.6.6.6.6.6.6.6.6.6.6.6.6.6.6.6.6.6.6.6.6.6.6##.D.D.D.D.D.D.D.D.D.D.D.D.D.D.D.D.D.D.D.D.D.D.D.D.D",
".D.D.D.D.D.D#a#b.6.6.6.6.6.6.6.6.6.6.6.6.6.6.6.6.6.6.6.6.6.6.6.6.6.6.6.6.6.6##.D.D.D.D.D.D.D.D.D.D.D.D.D.D.D.D.D.D.D.D.D.D.D.D.D",
"#c#c#c#d#d.M#e#f#g#h#i.S.S#j#j#j#j#j#j#j#j#j#k#l#########m#n#o#o#p#l#e#e#f#e#q#n#a#a#a#a#a#a#r.S#s#d#d#d#d#d#d#d#d#d#t.P.P.P.P.P",
"#u#u#u#u#u#u#v#w#x#x#x#x#x#y#y#y#z#A#A#A#A#B#C#D#E#E#E#E#E#E#E#E#E#E#E#E#E#E#E#E#E#E#E#E#E#E#E#E#E#E#E#E#E#E#E#d.4.4.4.4.4.4.4.4",
"#F#F#F#F#F#F#F#F#F#F#F#F#F#F#F#F#F#F#F#F#F#F#F#G#E#E#H#H#H#H#H#H#H#H#H#H#H#H#H#H#H#H#H#H#H#H#H#H#H#H#H#H#H#E#E#d#F#F#F#F#F#F#F#F",
"#F#F#F#F#F#F#F#F#F#F#F#F#F#F#F#F#F#F#F#F#F#F#F#I#H#H#H#H#H#H#H#H#H#H#H#H#H#H#H#H#H#H#H#H#H#H#H#H#H#H#H#H#H#H#E#J#F#F#F#F#F#F#F#F",
"#F#F#F#F#F#F#F#F#F#F#F#F#F#F#F#F#F#F#F#F#F#F#F#K#H#H#H#H#H#H#H#H#H#H#H#H#H#H#H#H#H#H#H#H#H#H#H#H#H#H#H#H#H#H#H#L#M#F#F#F#F#F#F#F",
"#F#F#F#F#F#F#F#F#F#F#F#F#F#F#F#F#F#F#F#F#F#F#F#K#H#H#H#H#H#H#H#H#H#H#H#H#H#H#H#H#H#H#H#H#H#H#H#H#H#H#H#H#H#H#H#N#O#F#F#F#F#F#F#F",
"#F#F#F#F#F#F#F#F#F#F#F#F#F#F#F#F#F#F#F#F#F#F#F#P#H#H#H#H#H#H#H#H#H#H#H#H#H#H#H#H#H#H#H#H#H#H#H#H#H#H#H#H#H#H#H#Q#F#F#F#F#F#F#F#F",
"#F#F#F#F#F#F#F#F#F#F#F#F#F#F#F#F#F#F#F#F#F#F#F#R#H#H#H#H#H#H#H#H#H#H#H#H#H#H#H#H#H#H#H#H#H#H#H#H#H#H#H#H#H#H#H#R#F#F#F#F#F#F#F#F",
"#F#F#F#O#F#F#F#F#F#F#F#F#F#F#F#F#F#F#F#F#F#F#F#n#H#H#H#H#H#H#H#H#H#H#H#H#H#H#H#H#H#H#H#H#H#H#H#H#H#H#H#H#H#H#H#S#F#F#F#F#F#F#F#F",
".P.P.P#T#T#U#T#T#V#V#V#V#W#X#Y#Y#Y#Y#Y#Z#R#R#R#0.T.T#1#2#3#4#T#T#T#T#T#T#T#5#6#7#8#I#I#I#I#I#I#I#I#3.S.S.S#o#g#g#R#R#9#9#9#9#9#9",
".4.4.4.4.4.4#T.4.4.4.4.4.4.4.4.4.4.4.4.4.4.4.4.4.4.4.4.4.4.4.4.4.4.4.4.4.4#Ta.a##I.4.4.4.4.4.4.4.4.4.4.4.4.4.4.4.4.4.4.4.4.4.4.4",
"#F#F#F#F#F#F#T#F#F#F#F#F#F#F#F#F#F#F#F#F#F#F#F#F#F#F#F#F#F#F#F#F#F#F#F#F#F#F#I#I#F#F#F#F#F#F#F#F#F#F#F#F#F#F#F#F#F#F#F#F#F#F#F#F",
"#F#F#F#F#F#F#T#F#F#F#F#F#F#F#F#F#F#F#F#F#F#F#F#F#F#F#F#F#F#F#F#F#F#F#F#F#F#F#I#F#F#F#F#F#F#F#F#F#F#F#F#F#F#F#F#F#F#F#F#F#F#F#F#F",
"#F#F#F#F#F#F.N#F#F#F#F#F#F#F#F#F#F#F#F#F#F#F#F#F#F#F#F#F#F#F#F#F#F#F#F#F#F#F#4#F#F#F#F#F#F#F#F#F#F#F#F#F#F#F#F#F#F#F#F#F#F#F#F#F",
"#F#F#F#F#F#F.P#F#F#F#F#F#F#F#F#F#F#F#F#F#F#F#F#F#F#F#F#F#F#F#F#F#F#F#F#F#F#Faa#F#F#F#F#F#F#F#F#F#F#F#F#F#F#F#F#F#F#F#F#F#F#F#F#F",
"#F#F#F#F#F#F.L#F#F#F#F#F#F#F#F#F#F#F#F#F#F#F#F#F#F#F#F#F#F#F#F#F#F#F#F#F#F#Faa#F#F#F#F#F#F#F#F#F#F#F#F#F#F#F#F#F#F#F#F#F#F#F#F#F",
"#F#F#F#F#F#F#I#F#F#F#F#F#F#F#F#F#F#F#F#F#F#F#F#F#F#F#F#F#F#F#F#F#F#F#F#F#F#F#I#F#F#F#F#F#F#F#F#F#F#F#F#F#F#F#F#F#F#F#F#F#F#F#F#F",
"#F#F#F#F#F#F#3#F#F#F#F#F#F#F#F#F#F#F#F#F#F#F#F#F#F#F#F#F#F#F#F#F#F#F#F#F#F#F#3#F#F#F#F#F#F#F#F#F#F#F#F#F#F#F#F#F#F#F#F#F#F#F#F#F",
"abababababababababababababababab#Fababababababababababababababababababababababababababababababab#Fababababababababababababababab",
"acacacacacacacacacacacacacacacacadacacacacacacacacacacacacacacacacacacacacacacacacacacacacacacacadacacacacacacacacacacacacacacac",
"acacacacacacacacacacacacacacacacaeacacacacacacacacacacacacacacacacacacacacacacacacacacacacacacacaeacacacacacacacacacacacacacacac",
"acacacacacacacacacacacacacacacacaeacacacacacacacacacacacacacacacacacacacacacacacacacacacacacacacaeacacacacacacacacacacacacacacac",
"acacacacacacacacacacacacacacacacaeacacacacacacacacacacacacacacacacacacacacacacacacacacacacacacacaeacacacacacacacacacacacacacacac",
"afafafafafafafafafafafafafafafafaeafafafafafafafafafafafafafafafafafafafafafafafafafafafafafafafaeafafafafafafafafafafafafafafaf",
"agagagagagagagagagagagagagagagagaeagagagagagagagagagagagagagagagagagagagagagagagagagagagagagagagaeagagagagagagagagagagagagagagag",
"agagagagagagagagagagagagagagagagaeagagagagagagagagagagagagagagagagagagagagagagagagagagagagagagagaeagagagagagagagagagagagagagagag",
"agagagagagagagagagagagagagagagag.Eagagagagagagagagagagagagagagagagagagagagagagagagagagagagagagag.Eagagagagagagagagagagagagagagag",
".E.E.E.E.E.E.E.E.E.E.E.E.E.E.E.E.E.E.E.E.E.E.E.E.E.E.E.E.E.E.E.E.E.E.E.E.E.E.E.E.E.E.E.E.E.E.E.E.E.E.E.E.E.E.E.E.E.E.E.E.E.E.E.E"};
